X:2906
T:Morgon mellom fjella
C:Gregor Hauer
O:Austria / Norway
Z:Transcribed by Frank Nordberg - http://www.musicaviva.com
F:http://abc.musicaviva.com/tunes/hauer-gregor/hauer-morgon-mellom-fjella.abc
M:6/8
L:1/8
K:C
"C"G2G "G"G2G|"C"(G2c) c2 z|"C"E2E (GF)E|
w:Mor-gon mel-lom fjel--la! Kla-re bekk_ og
"G"D3-D z z|"C"G2G "G"G2G|"Em"e3 "Am"c2 z|
w:flod,_ fl\oy-man-de \aat fjor-den,
"Dm"d2d "G7"(GA)B|"C"c3-c zz|"C"(G3- "G7"GF)D|"C"C3-C z z|]
w:kve-der: "Gud_ er god!_ Gud__ er god!"_
W:
W:Morgon mellom fjella!
W:Klare bekk og flod,
W:fl\oymande \aat fjorden,
W:kveder: "Gud er god!"
W:
W:Dagen ser eg tendrast,
W:fram g\aar ljosens flod.
W:Dalane som vaknar,
W:svara: "Gud er god!"
W:
W:Alle fuglar syngja
W:opp med gledeljod,
W:alle berg og nutar
W:ljomar: "Gud er god!".
W:
W:
W:  From Musica Viva - http://www.musicaviva.com
W:  the Internet center for free sheet music downloads.


